assets/icons/qvision/do_not_disturb.svg

<svg xmlns="http://www.w3.org/2000/svg" height="24" viewBox="0 0 24 24" width="24"><path d="M0 0h24v24H0z" fill="none"/><path d="M12 2C6.48 2 2 6.48 2 12s4.48 10 10 10 10-4.48 10-10S17.52 2 12 2zm0 18c-4.42 0-8-3.58-8-8 0-1.85.63-3.55 1.69-4.9L16.9 18.31C15.55 19.37 13.85 20 12 20zm6.31-3.1L7.1 5.69C8.45 4.63 10.15 4 12 4c4.42 0 8 3.58 8 8 0 1.85-.63 3.55-1.69 4.9z"/></svg>

<svg width="24" height="24" viewBox="0 0 24 24" fill="none" xmlns="http://www.w3.org/2000/svg">
<g clip-path="url(#clip0_147_5931)">
<path d="M12 2C6.48 2 2 6.48 2 12C2 17.52 6.48 22 12 22C17.52 22 22 17.52 22 12C22 6.48 17.52 2 12 2ZM12 20C7.58 20 4 16.42 4 12C4 10.15 4.63 8.45 5.69 7.1L16.9 18.31C15.55 19.37 13.85 20 12 20ZM18.31 16.9L7.1 5.69C8.45 4.63 10.15 4 12 4C16.42 4 20 7.58 20 12C20 13.85 19.37 15.55 18.31 16.9Z" fill="#323232"/>
</g>
<defs>
<clipPath id="clip0_147_5931">
<rect width="24" height="24" fill="white"/>
</clipPath>
</defs>
</svg>
